X:327
T:Honorable John Leslie Melville
R:Strathspey
B:The Athole Collection
M:C
L:1/8
K:D Minor
A|d>e f>de>^c d2|A>cG>F E<C C>E|d>ef>d e<^c d2|A<c E>G F<DD:|
A|F/G/A D>AF>A d=B|c>GA>F E<C C>E|F/G/A D>AF>A d=B|
c>GE>A F<D D>A|F/G/A D>AF>A d>=B|c>GA>F E<C C>E|
F>AG>B A>d^c>g|f>de>^c d<DD||

